X: 1
T:P\aal sine h\oner
C:anon.
O:Norway
R:Reinlender
Z:Transcribed by Frank Nordberg - http://www.musicaviva.com
M:C
L:1/8
K:G
"G"G2GB d2dB|"C"e2ec "G"d2d2|"D7"c2cA "G"B2BG|"D7"A2AF "G"G2 z2:|\
"G"d3B G2GB|"A7"A2AG "D7"F2D2|"G"d3B G2GB|"A7"A2AG "D7"F2D2|\
"G"G2GB d2dB|"C"e2ec "G"d2d2|"D7"c2cA "G"B2BG|"D7"A2AF "G"G2 z2|]
W:
W:P\aal sine h\oner p\aa haugen utslepte,
W:h\ona s\aa lett over haugane sprang.
W:P\aal kunne vel p\aa h\ona fornemma,
W:reven var ute med rumpa s\aa lang.
W:Klukk, klukk, klukk, sa h\ona p\aa haugen.
W:Klukk, klukk, klukk, sa h\ona p\aa haugen.
W:P\aal han sprang og rengde med auga:
W:"No t\or eg ikkje koma heim \aat ho mor."
